communes/590.svg

<?xml version="1.0" encoding="UTF-8" standalone="no"?>
<svg
   xmlns:dc="http://purl.org/dc/elements/1.1/"
   xmlns:cc="http://web.resource.org/cc/"
   xmlns:rdf="http://www.w3.org/1999/02/22-rdf-syntax-ns#"
   xmlns:svg="http://www.w3.org/2000/svg"
   xmlns="http://www.w3.org/2000/svg"
   xmlns:xlink="http://www.w3.org/1999/xlink"
   xmlns:sodipodi="http://sodipodi.sourceforge.net/DTD/sodipodi-0.dtd"
   xmlns:inkscape="http://www.inkscape.org/namespaces/inkscape"
   height="763"
   width="603"
   version="1.0"
   id="svg20"
   sodipodi:version="0.32"
   inkscape:version="0.44.1"
   sodipodi:docname="Ringgenberg-coat of arms.svg"
   sodipodi:docbase="F:\Mis Documentos\Mis imágenes\Encyclopédie\Escudos de Suiza">
  <metadata
     id="metadata31">
    <rdf:RDF>
      <cc:Work
         rdf:about="">
        <dc:format>image/svg+xml</dc:format>
        <dc:type
           rdf:resource="http://purl.org/dc/dcmitype/StillImage" />
        <dc:date>07-AUG-2006</dc:date>
        <dc:creator>
          <cc:Agent>
            <dc:title>Jérôme BLUM (wagner51)</dc:title>
          </cc:Agent>
        </dc:creator>
        <cc:license
           rdf:resource="http://creativecommons.org/licenses/GPL/2.0/" />
        <dc:coverage />
        <dc:description>Gabarit pour le Projet:Blasons de WIkipédia</dc:description>
        <dc:subject>
          <rdf:Bag>
            <rdf:li>blason suisse modèle gabarit projet blasons</rdf:li>
          </rdf:Bag>
        </dc:subject>
        <dc:language>fr</dc:language>
        <dc:title>Gabrit d'un blason suisse</dc:title>
      </cc:Work>
      <cc:License
         rdf:about="http://creativecommons.org/licenses/GPL/2.0/">
        <cc:permits
           rdf:resource="http://web.resource.org/cc/Reproduction" />
        <cc:permits
           rdf:resource="http://web.resource.org/cc/Distribution" />
        <cc:requires
           rdf:resource="http://web.resource.org/cc/Notice" />
        <cc:permits
           rdf:resource="http://web.resource.org/cc/DerivativeWorks" />
        <cc:requires
           rdf:resource="http://web.resource.org/cc/ShareAlike" />
        <cc:requires
           rdf:resource="http://web.resource.org/cc/SourceCode" />
      </cc:License>
    </rdf:RDF>
  </metadata>
  <defs
     id="defs29">
    <linearGradient
       id="linearGradient2893">
      <stop
         style="stop-color:#ffffff;stop-opacity:0.3137255;"
         offset="0"
         id="stop2895" />
      <stop
         id="stop2897"
         offset="0.19"
         style="stop-color:#ffffff;stop-opacity:0.25098041;" />
      <stop
         style="stop-color:#6b6b6b;stop-opacity:0.1254902;"
         offset="0.60000002"
         id="stop2901" />
      <stop
         style="stop-color:#000000;stop-opacity:0.1254902;"
         offset="1"
         id="stop2899" />
    </linearGradient>
    <linearGradient
       id="linearGradient2955">
      <stop
         style="stop-color:white;stop-opacity:0;"
         offset="0"
         id="stop2965" />
      <stop
         style="stop-color:black;stop-opacity:0.64583331;"
         offset="1"
         id="stop2959" />
    </linearGradient>
    <radialGradient
       inkscape:collect="always"
       xlink:href="#linearGradient2893"
       id="radialGradient3236"
       gradientUnits="userSpaceOnUse"
       gradientTransform="matrix(1.215027,1.531577e-24,1.464684e-23,1.266667,-839.1924,-490.4894)"
       cx="858.04236"
       cy="579.93323"
       fx="858.04236"
       fy="579.93323"
       r="300" />
  </defs>
  <sodipodi:namedview
     inkscape:window-height="682"
     inkscape:window-width="1024"
     inkscape:pageshadow="2"
     inkscape:pageopacity="0.0"
     guidetolerance="10.0"
     gridtolerance="10.0"
     objecttolerance="10.0"
     borderopacity="1.0"
     bordercolor="#666666"
     pagecolor="#ffffff"
     id="base"
     inkscape:zoom="0.49076704"
     inkscape:cx="683.08697"
     inkscape:cy="328.20726"
     inkscape:window-x="-4"
     inkscape:window-y="-4"
     inkscape:current-layer="layer2"
     showgrid="true"
     showguides="true"
     inkscape:guide-bbox="true" />
  <desc
     id="desc22">Coat of Arms of Canton of Freiburg (Fribourg)</desc>
  <g
     inkscape:groupmode="layer"
     id="layer1"
     inkscape:label="Fond écu"
     sodipodi:insensitive="true">
    <path
       id="path1899"
       d="M 1.5,1.49998 L 1.5,460.3679 C 1.5,626.6785 135.81456,761.5 301.49999,761.5 C 467.18543,761.5 601.5,626.6785 601.5,460.3679 L 601.5,1.49998 L 1.5,1.49998 z "
       style="fill:#e20909;fill-opacity:1" />
  </g>
  <g
     inkscape:groupmode="layer"
     id="layer2"
     inkscape:label="Meubles"
     sodipodi:insensitive="true">
    <g
       id="g10931"
       transform="matrix(4.277058,0,0,4.277058,-2676.959,-2463.059)">
      <path
         sodipodi:nodetypes="cczcczc"
         id="path7385"
         d="M 637.67275,645.53325 L 754.56975,645.53325 C 754.82613,641.66544 765.3348,636.36854 764.83584,651.6545 C 764.33687,666.71621 754.34305,662.94003 753.67275,658.4485 L 637.67275,658.4485 C 637.22458,663.66325 627.60205,665.31896 627.91525,651.6545 C 628.22844,637.99004 636.77274,640.3582 637.67275,645.53325 z "
         style="fill:white;fill-opacity:1;fill-rule:evenodd;stroke:black;stroke-width:1px;stroke-linecap:butt;stroke-linejoin:miter;stroke-opacity:1" />
      <path
         sodipodi:nodetypes="ccccc"
         id="path6498"
         d="M 635.95141,660.4629 L 646.95141,660.4629 C 647.67255,579.85856 744.02505,580.16188 744.59849,660.4629 L 755.95141,660.4629 C 756.7269,550.3049 635.6525,557.57989 635.95141,660.4629 z "
         style="fill:white;fill-opacity:1;fill-rule:evenodd;stroke:black;stroke-width:1px;stroke-linecap:butt;stroke-linejoin:miter;stroke-opacity:1" />
      <path
         sodipodi:nodetypes="cscsccccc"
         id="path8272"
         d="M 685,648 C 689.09617,642.74334 687.24444,628.57063 685,618 C 682.08611,604.27644 683.04162,598.41657 695.22425,586.87875 C 710.47819,598.58775 706.05351,607.78177 705,618 C 703.73826,630.23793 700.63674,643.15561 705,648 L 705,663 L 685,663 L 685,648 L 685,648 z "
         style="fill:white;fill-opacity:1;fill-rule:evenodd;stroke:black;stroke-width:1px;stroke-linecap:butt;stroke-linejoin:miter;stroke-opacity:1" />
      <path
         sodipodi:nodetypes="ccccccccccccccccccccc"
         id="path9159"
         d="M 654.103,733.897 C 680.88811,716.32591 714.17966,716.15005 739.103,733.897 C 745.38132,728.00979 759.10093,711.81563 739.04859,698.63427 C 728.06484,693.04906 718.5386,700.52139 714.04859,707.52429 L 710.47571,721.48851 L 714.04859,707.52429 C 718.47865,700.53353 728.08156,693.02463 739.04859,698.63427 C 745.05941,683.17453 732.82562,670.43688 714.68286,675.21996 C 707.38216,679.66899 705.95636,684.94573 703.09718,690.21996 C 705.99326,685.04436 707.43117,679.60363 714.68286,675.21996 C 712.31528,655.56661 679.10944,655.16278 675.31714,675.5371 C 681.28161,678.87573 685.10842,684.71909 687.69566,690.37853 C 685.24519,684.59353 681.1859,678.8201 675.31714,675.5371 C 661.63043,670.63403 645.26269,682.64047 650.31714,699.42712 C 661.69744,694.25222 670.34807,700.54525 676.42712,706.89002 C 676.66481,682.8109 715.36895,682.8647 714.04859,707.52429 C 715.35269,682.85756 676.61073,682.80008 676.42712,706.89002 L 681.67378,722.09538 L 676.42712,706.89002 C 669.80435,700.32993 661.68108,694.22854 650.31714,699.42712 C 637.24613,708.7351 640.07929,728.59422 654.103,733.897 z "
         style="fill:white;fill-opacity:1;fill-rule:evenodd;stroke:black;stroke-width:1px;stroke-linecap:butt;stroke-linejoin:miter;stroke-opacity:1" />
    </g>
  </g>
  <g
     inkscape:groupmode="layer"
     id="layer3"
     inkscape:label="Reflet final"
     style="display:inline"
     sodipodi:insensitive="true">
    <path
       style="fill:url(#radialGradient3236);fill-opacity:1"
       d="M 1.5,1.5 L 1.5,460.3679 C 1.5,626.67854 135.81454,761.5 301.49993,761.5 C 467.1854,761.5 601.5,626.67854 601.5,460.3679 L 601.5,1.5 L 1.5,1.5 z "
       id="path2346" />
  </g>
  <g
     inkscape:groupmode="layer"
     id="layer4"
     inkscape:label="Contour final"
     style="display:inline"
     sodipodi:insensitive="true">
    <path
       style="fill:none;fill-opacity:1;stroke:#000000;stroke-width:3;stroke-miterlimit:4;stroke-dasharray:none;stroke-opacity:1"
       d="M 1.5,1.5 L 1.5,460.36794 C 1.5,626.67854 135.81454,761.5 301.49993,761.5 C 467.1854,761.5 601.5,626.67854 601.5,460.36794 L 601.5,1.5 L 1.5,1.5 z "
       id="path3239" />
  </g>
</svg>

<?xml version="1.0" encoding="UTF-8"?>
<svg version="1.0" viewBox="0 0 603 763" xmlns="http://www.w3.org/2000/svg" xmlns:cc="http://web.resource.org/cc/" xmlns:dc="http://purl.org/dc/elements/1.1/" xmlns:rdf="http://www.w3.org/1999/02/22-rdf-syntax-ns#" xmlns:xlink="http://www.w3.org/1999/xlink">
<metadata>
<rdf:RDF>
<cc:Work rdf:about="">
<dc:format>image/svg+xml</dc:format>
<dc:type rdf:resource="http://purl.org/dc/dcmitype/StillImage"/>
<dc:date>07-AUG-2006</dc:date>
<dc:creator>
<cc:Agent>
<dc:title>Jérôme BLUM (wagner51)</dc:title>
</cc:Agent>
</dc:creator>
<cc:license rdf:resource="http://creativecommons.org/licenses/GPL/2.0/"/>
<dc:coverage/>
<dc:description>Gabarit pour le Projet:Blasons de WIkipédia</dc:description>
<dc:subject>
<rdf:Bag>
<rdf:li>blason suisse modèle gabarit projet blasons</rdf:li>
</rdf:Bag>
</dc:subject>
<dc:language>fr</dc:language>
<dc:title>Gabrit d'un blason suisse</dc:title>
</cc:Work>
<cc:License rdf:about="http://creativecommons.org/licenses/GPL/2.0/">
<cc:permits rdf:resource="http://web.resource.org/cc/Reproduction"/>
<cc:permits rdf:resource="http://web.resource.org/cc/Distribution"/>
<cc:requires rdf:resource="http://web.resource.org/cc/Notice"/>
<cc:permits rdf:resource="http://web.resource.org/cc/DerivativeWorks"/>
<cc:requires rdf:resource="http://web.resource.org/cc/ShareAlike"/>
<cc:requires rdf:resource="http://web.resource.org/cc/SourceCode"/>
</cc:License>
</rdf:RDF>
</metadata>
<defs>
<radialGradient id="a" cx="858.04" cy="579.93" r="300" gradientTransform="matrix(1.215 1.5316e-24 1.4647e-23 1.2667 -839.19 -490.49)" gradientUnits="userSpaceOnUse">
<stop stop-color="#fff" stop-opacity=".31373" offset="0"/>
<stop stop-color="#fff" stop-opacity=".25098" offset=".19"/>
<stop stop-color="#6b6b6b" stop-opacity=".12549" offset=".6"/>
<stop stop-opacity=".12549" offset="1"/>
</radialGradient>
</defs>
<desc>Coat of Arms of Canton of Freiburg (Fribourg)</desc>
<path d="m1.5 1.5v458.87c0 166.31 134.31 301.13 300 301.13 165.69 0 300-134.82 300-301.13v-458.87h-600z" fill="#e20909"/>
<g transform="matrix(4.2771 0 0 4.2771 -2677 -2463.1)" fill="#fff" fill-rule="evenodd" stroke="#000" stroke-width="1px">
<path d="m637.67 645.53h116.9c0.25638-3.8678 10.765-9.1647 10.266 6.1212-0.49897 15.062-10.493 11.286-11.163 6.794h-116c-0.44817 5.2148-10.071 6.8705-9.7575-6.794 0.31319-13.664 8.8575-11.296 9.7575-6.1212z"/>
<path d="m635.95 660.46h11c0.72114-80.604 97.074-80.301 97.647 0h11.353c0.77549-110.16-120.3-102.88-120 0z"/>
<path d="m685 648c4.0962-5.2567 2.2444-19.429 0-30-2.9139-13.724-1.9584-19.583 10.224-31.121 15.254 11.709 10.829 20.903 9.7758 31.121-1.2617 12.238-4.3633 25.156 0 30v15h-20v-15z"/>
<path d="m654.1 733.9c26.785-17.571 60.077-17.747 85 0 6.2783-5.8872 19.998-22.081-0.05441-35.263-10.984-5.5852-20.51 1.8871-25 8.89l-3.5729 13.964 3.5729-13.964c4.4301-6.9908 14.033-14.5 25-8.89 6.0108-15.46-6.223-28.197-24.366-23.414-7.3007 4.449-8.7265 9.7258-11.586 15 2.8961-5.1756 4.334-10.616 11.586-15-2.3676-19.653-35.573-20.057-39.366 0.31714 5.9645 3.3386 9.7913 9.182 12.379 14.841-2.4505-5.785-6.5098-11.558-12.379-14.841-13.687-4.9031-30.054 7.1034-25 23.89 11.38-5.1749 20.031 1.1181 26.11 7.4629 0.23769-24.079 38.942-24.025 37.621 0.63427 1.3041-24.667-37.438-24.724-37.621-0.63427l5.2467 15.205-5.2467-15.205c-6.6228-6.5601-14.746-12.661-26.11-7.4629-13.071 9.308-10.238 29.167 3.7859 34.47z"/>
</g>
<g>
<path d="m1.5 1.5v458.87c0 166.31 134.31 301.13 300 301.13 165.69 0 300-134.82 300-301.13v-458.87h-600z" fill="url(#a)"/>
<path d="m1.5 1.5v458.87c0 166.31 134.31 301.13 300 301.13 165.69 0 300-134.82 300-301.13v-458.87h-600z" fill="none" stroke="#000" stroke-width="3"/>
</g>
</svg>
